X: 4860
T: Braes Of Ballenden, The
R: waltz
M: 3/4
K: Fmajor
"Slow"B>c|{B/c/}d2f2 f>g|Tf4 (g/a/b)|(gf)(edcB)|T{d}c4 B>c|
d2f2 (f/g/a)|{a}b3ag2|f>g {g}f(e/d/) Tc>B|B4:|
|:(D>E)|F3 GBF|G2 (B>c) T(cB/4c/4)|d2c2 (d/c/B)|G4 (f/g/a)|b2 B2 (B/c/d)|
c2d2 f>b|g2 (fe)(de)|{d}c4 Bc|d2f2 (f/g/a)|{a}b3ag2|f>g (f<d)T(cB)|
G4 Bc|d2f2F2|G2B2 g>b|(f>g)(f>d)T(c>B)|B4:|

